images/telegram-icon-dark.svg

<svg width="50" height="42" viewBox="0 0 50 42" fill="none" xmlns="http://www.w3.org/2000/svg">
<path d="M19.6193 27.4609L18.7922 39.0946C19.9756 39.0946 20.4881 38.5862 21.1027 37.9758L26.6508 32.6736L38.1469 41.0925C40.2553 42.2676 41.7407 41.6488 42.3095 39.1529L49.8555 3.79371L49.8576 3.79163C50.5263 0.674884 48.7305 -0.543895 46.6762 0.220707L2.32102 17.2024C-0.706141 18.3774 -0.660306 20.0649 1.80642 20.8295L13.1463 24.3567L39.4865 7.87506C40.7261 7.0542 41.8532 7.50838 40.9261 8.32924L19.6193 27.4609Z" fill="#363739"/>
</svg>

<svg xmlns="http://www.w3.org/2000/svg" width="50" height="42" fill="none" xmlns:v="https://vecta.io/nano"><path d="M19.619 27.461l-.827 11.634c1.183 0 1.696-.508 2.31-1.119l5.548-5.302 11.496 8.419c2.108 1.175 3.594.556 4.163-1.94l7.546-35.359.002-.002C50.526.675 48.731-.544 46.676.221L2.321 17.202c-3.027 1.175-2.981 2.863-.515 3.627l11.34 3.527 26.34-16.482c1.24-.821 2.367-.367 1.44.454L19.619 27.461z" fill="#363739"/></svg>
